X:750
T: Wexford Reel
T: R\'il Loch Garman
S: B.Breathnach: "Ceol Rince na hEireann" II/215
Z: B.Black
L: 1/8
M: 4/4
R: reel
K: D
d2 cA BGAF|E2 eg fdec|d2 cA BGAF|DFAG FDDc|
d2 cA BGAF|E2 ef gfec|dgfd cdef|dBAG FD D ||
e|f2 de f2 af|gfga bgeg|f2 dg fgaf|gbag fdde|
f2 de faaf|gfga bgeg|fgaf gabg|faeg fdec ||

